svg/transport/UFO_fill.svg

<?xml version="1.0" encoding="UTF-8"?>
<svg width="24px" height="24px" viewBox="0 0 24 24" version="1.1" xmlns="http://www.w3.org/2000/svg" xmlns:xlink="http://www.w3.org/1999/xlink">
    <title>UFO_fill</title>
    <g id="页面-1" stroke="none" stroke-width="1" fill="none" fill-rule="evenodd">
        <g id="Transport" transform="translate(-96.000000, -144.000000)" fill-rule="nonzero">
            <g id="UFO_fill" transform="translate(96.000000, 144.000000)">
                 <path d="M24,0 L24,24 L0,24 L0,0 L24,0 Z M12.5934901,23.257841 L12.5819402,23.2595131 L12.5108777,23.2950439 L12.4918791,23.2987469 L12.4918791,23.2987469 L12.4767152,23.2950439 L12.4056548,23.2595131 C12.3958229,23.2563662 12.3870493,23.2590235 12.3821421,23.2649074 L12.3780323,23.275831 L12.360941,23.7031097 L12.3658947,23.7234994 L12.3769048,23.7357139 L12.4804777,23.8096931 L12.4953491,23.8136134 L12.4953491,23.8136134 L12.5071152,23.8096931 L12.6106902,23.7357139 L12.6232938,23.7196733 L12.6232938,23.7196733 L12.6266527,23.7031097 L12.609561,23.275831 C12.6075724,23.2657013 12.6010112,23.2592993 12.5934901,23.257841 L12.5934901,23.257841 Z M12.8583906,23.1452862 L12.8445485,23.1473072 L12.6598443,23.2396597 L12.6498822,23.2499052 L12.6498822,23.2499052 L12.6471943,23.2611114 L12.6650943,23.6906389 L12.6699349,23.7034178 L12.6699349,23.7034178 L12.678386,23.7104931 L12.8793402,23.8032389 C12.8914285,23.8068999 12.9022333,23.8029875 12.9078286,23.7952264 L12.9118235,23.7811639 L12.8776777,23.1665331 C12.8752882,23.1545897 12.8674102,23.1470016 12.8583906,23.1452862 L12.8583906,23.1452862 Z M12.1430473,23.1473072 C12.1332178,23.1423925 12.1221763,23.1452606 12.1156365,23.1525954 L12.1099173,23.1665331 L12.0757714,23.7811639 C12.0751323,23.7926639 12.0828099,23.8018602 12.0926481,23.8045676 L12.108256,23.8032389 L12.3092106,23.7104931 L12.3186497,23.7024347 L12.3186497,23.7024347 L12.3225043,23.6906389 L12.340401,23.2611114 L12.337245,23.2485176 L12.337245,23.2485176 L12.3277531,23.2396597 L12.1430473,23.1473072 Z" id="MingCute" fill-rule="nonzero"></path>
                <path d="M20.2138,13.8287 C21.1469,14.4205 22,15.3282 22,16.5 C22,18.0742615 20.5737346,19.0877518 19.2401405,19.6913122 L18.8953473,19.8395629 C18.8385651,19.8627546 18.7822077,19.8851962 18.7264,19.9069 C16.9555,20.5956 14.577,21 12,21 C9.42296,21 7.04448,20.5956 5.27359,19.9069 L5.10463949,19.8395629 L5.10463949,19.8395629 L4.7598417,19.6913122 C3.42623408,19.0877518 2,18.0742615 2,16.5 C2,15.3281 2.85315,14.4205 3.78621,13.8287 C4.08124,14.011 4.42009,14.2031 4.80279,14.3944 C6.42507,15.2056 8.82724,16 12,16 C15.1728,16 17.5749,15.2056 19.1972,14.3944 C19.5799,14.2031 19.9188,14.011 20.2138,13.8287 Z M12,3 C12.8284,3 13.5,3.67157 13.5,4.5 C13.5,4.94425 13.3069,5.34339 13,5.61805 L13,7.07089 C15.8422,7.47743 18.1336,9.59128 18.802,12.3402 L18.446014,12.5327209 C17.0708931,13.2447583 14.9271,14 12,14 C9.0728725,14 6.92910236,13.2447583 5.55395461,12.5327209 L5.19796,12.3402 L5.19796,12.3402 C5.86639,9.59128 8.15782,7.47743 11,7.07089 L11,5.61805 C10.6931,5.34339 10.5,4.94425 10.5,4.5 C10.5,3.67157 11.1716,3 12,3 Z" id="形状" fill="#09244B"></path>
            </g>
        </g>
    </g>
</svg>

<svg xmlns="http://www.w3.org/2000/svg" width="24" height="24"><g fill="none" fill-rule="nonzero"><path d="M24 0v24H0V0h24ZM12.593 23.258l-.011.002-.071.035-.02.004-.014-.004-.071-.035c-.01-.004-.019-.001-.024.005l-.004.01-.017.428.005.02.01.013.104.074.015.004.012-.004.104-.074.012-.016.004-.017-.017-.427c-.002-.01-.009-.017-.017-.018Zm.265-.113-.013.002-.185.093-.01.01-.003.011.018.43.005.012.008.007.201.093c.012.004.023 0 .029-.008l.004-.014-.034-.614c-.003-.012-.01-.02-.02-.022Zm-.715.002a.023.023 0 0 0-.027.006l-.006.014-.034.614c0 .012.007.02.017.024l.015-.002.201-.093.01-.008.004-.011.017-.43-.003-.012-.01-.01-.184-.092Z"/><path fill="#09244B" d="M20.214 13.829c.933.591 1.786 1.5 1.786 2.671 0 1.574-1.426 2.588-2.76 3.191l-.345.149-.169.067C16.956 20.596 14.577 21 12 21s-4.956-.404-6.726-1.093l-.17-.067-.344-.149C3.426 19.088 2 18.074 2 16.5c0-1.172.853-2.08 1.786-2.671.295.182.634.374 1.017.565C6.425 15.206 8.827 16 12 16s5.575-.794 7.197-1.606c.383-.19.722-.383 1.017-.565ZM12 3a1.5 1.5 0 0 1 1 2.618v1.453a7.007 7.007 0 0 1 5.802 5.27l-.356.192C17.071 13.245 14.927 14 12 14c-2.927 0-5.07-.755-6.446-1.467l-.356-.193A7.007 7.007 0 0 1 11 7.07V5.619A1.5 1.5 0 0 1 12 3Z"/></g></svg>
